X:1
T:Title
%%score { 1 | 2 }
L:1/8
Q:1/4=100
M:3/4
K:G
V:1 treble nm="Grand Piano"
V:2 bass 
V:1
 [DB]2 [DB]2 [DB]2 | [DB]4 [DB]2 | [Ec]4 [^DG]2 | [DB]6 | B2 B2 B2 | d4 B2 | B4 A2 | [FA]6 | %8
w: Adam~Geibel * *||||||||
 [FA]2 [FA]2 [FA]2 | [B,FB]4 [B,^DF]2 | [B,EG]4 [A,EA]2 | [A,DF]6 | [G,DG]2 A2 B2 | [=Fd]4 [Ec]2 | %14
w: ||||||
 [FB]4 [FA]2 | G6 |] %16
w: ||
V:2
 [G,,G,]2 [G,,G,]2 [G,,G,]2 | [G,,G,]4 [G,,G,]2 | [C,G,]4 [C,G,]2 | [G,,G,]6 | %4
 [G,DG]2 [G,DG]2 [G,DF]2 | [B,DG]4 [G,DG]2 | [A,^CG]4 [A,CG]2 | [D,D]6 | [D,D]2 [D,D]2 [D,D]2 | %9
 ^D,4 D,2 | E,4 ^C,2 | D,4 C,2 | B,,2 [D,F,D]2 [G,D]2 | [C,^G,]4 [C,A,]2 | [D,D]4 [D,C]2 | %15
 [G,B,]6 |] %16

